icons/passport.svg

<svg xmlns="http://www.w3.org/2000/svg" viewBox="0 0 48 48"><style>.st0{fill:none}.st1{fill:#fac8c6}.st2{fill:#ef4742}</style><path class="st0" d="M0 0h48v48H0z" id="Boundary"/><g id="Design"><path class="st1" d="M6 1h4v46H6z"/><path class="st2" d="M18 37h16v2H18z"/><path class="st2" d="M39.1 0H6a1 1 0 0 0-1 1v46a1 1 0 0 0 1 1h33.1c2.15 0 3.9-1.75 3.9-3.9V3.9C43 1.75 41.25 0 39.1 0zM7 2h2v44H7V2zm34 42.1c0 1.048-.853 1.9-1.9 1.9H11V2h28.1c1.047 0 1.9.852 1.9 1.9v40.2z"/><path class="st2" d="M27.726 8.132a11.406 11.406 0 0 0-3.436-.002 11.975 11.975 0 0 0-10.278 11.312l-.001.05-.001.008h.001c-.008.168-.011.33-.011.5 0 .38.021.75.054 1.122.516 5.557 4.725 9.977 10.221 10.746.559.088 1.14.132 1.725.132s1.166-.044 1.709-.13c5.513-.771 9.722-5.191 10.237-10.751a12.497 12.497 0 0 0 .043-1.67c-.263-5.755-4.585-10.515-10.263-11.317zM16.023 20.469c-.007-.14-.02-.279-.021-.421a17.736 17.736 0 0 1 4.103-2.051A20.054 20.054 0 0 0 20 20c0 .864.072 1.71.18 2.542a17.651 17.651 0 0 1-4.157-2.073zm6.273 2.646A17.481 17.481 0 0 1 22 20c0-.899.079-1.747.204-2.587a18.079 18.079 0 0 1 7.593 0c.124.837.203 1.685.203 2.587 0 1.066-.114 2.104-.296 3.115a18.056 18.056 0 0 1-7.408 0zm9.599-5.118c1.451.5 2.821 1.192 4.102 2.052-.001.143-.013.28-.021.42a17.412 17.412 0 0 1-4.157 2.074c.109-.834.181-1.68.181-2.543 0-.69-.04-1.352-.105-2.003zm3.785-.487a19.672 19.672 0 0 0-4.131-1.705 19.828 19.828 0 0 0-1.839-5.083 9.99 9.99 0 0 1 5.97 6.788zM26 10c.328 0 .654.023.978.058a17.853 17.853 0 0 1 2.379 5.234 20.255 20.255 0 0 0-6.714 0 17.832 17.832 0 0 1 2.368-5.216c.326-.036.652-.076.989-.076zm-3.711.725a19.836 19.836 0 0 0-1.838 5.08c-1.443.414-2.825.98-4.131 1.705a9.987 9.987 0 0 1 5.969-6.785zm-5.797 12.366a19.456 19.456 0 0 0 4.105 1.658 19.529 19.529 0 0 0 1.712 4.544 9.892 9.892 0 0 1-5.817-6.202zm8.516 6.833a17.601 17.601 0 0 1-2.217-4.683c1.069.173 2.143.269 3.209.269 1.066 0 2.14-.096 3.21-.269a17.562 17.562 0 0 1-2.218 4.684c-.651.07-1.318.07-1.984-.001zm4.684-.634a19.491 19.491 0 0 0 1.712-4.542 19.395 19.395 0 0 0 4.102-1.655 9.889 9.889 0 0 1-5.814 6.197z"/></g></svg>

<?xml version="1.0" encoding="utf-8"?>
<!-- Generator: Adobe Illustrator 19.2.1, SVG Export Plug-In . SVG Version: 6.00 Build 0)  -->
<svg version="1.1" xmlns="http://www.w3.org/2000/svg" xmlns:xlink="http://www.w3.org/1999/xlink" x="0px" y="0px"
	 viewBox="0 0 48 48" style="enable-background:new 0 0 48 48;" xml:space="preserve">
<style type="text/css">
	.st0{fill:none;}
	.st1{fill:#FAC8C6;}
	.st2{fill:#EF4742;}
</style>
<g id="Boundary">
	<rect class="st0" width="48" height="48"/>
</g>
<g id="Design">
	<g>
		<g>
			<rect x="6" y="1" class="st1" width="4" height="46"/>
		</g>
		<g>
			<rect x="18" y="37" class="st2" width="16" height="2"/>
			<path class="st2" d="M39.1,0H6C5.447,0,5,0.448,5,1v46c0,0.552,0.447,1,1,1h33.1c2.15,0,3.9-1.75,3.9-3.9V3.9
				C43,1.75,41.25,0,39.1,0z M7,2h2v44H7V2z M41,44.1c0,1.048-0.853,1.9-1.9,1.9H11V2h28.1C40.147,2,41,2.852,41,3.9V44.1z"/>
			<path class="st2" d="M27.726,8.132c-1.119-0.176-2.348-0.173-3.436-0.002c-5.696,0.804-10.02,5.567-10.278,11.312
				c-0.001,0.017,0,0.033-0.001,0.05c0,0.003-0.001,0.005-0.001,0.008h0.001C14.003,19.668,14,19.83,14,20
				c0,0.38,0.021,0.75,0.054,1.122c0.516,5.557,4.725,9.977,10.221,10.746C24.834,31.956,25.415,32,26,32s1.166-0.044,1.709-0.13
				c5.513-0.771,9.722-5.191,10.237-10.751C37.979,20.75,38,20.38,38,20c0-0.188-0.001-0.364-0.011-0.551
				C37.726,13.694,33.404,8.934,27.726,8.132z M16.023,20.469c-0.007-0.14-0.02-0.279-0.021-0.421
				c1.281-0.859,2.65-1.55,4.103-2.051C20.04,18.648,20,19.311,20,20c0,0.864,0.072,1.71,0.18,2.542
				C18.721,22.047,17.337,21.349,16.023,20.469z M22.296,23.115C22.114,22.108,22,21.069,22,20c0-0.899,0.079-1.747,0.204-2.587
				c2.463-0.537,5.12-0.538,7.593,0C29.921,18.25,30,19.098,30,20c0,1.066-0.114,2.104-0.296,3.115
				C27.245,23.627,24.756,23.627,22.296,23.115z M31.895,17.997c1.451,0.5,2.821,1.192,4.102,2.052
				c-0.001,0.143-0.013,0.28-0.021,0.42c-1.294,0.874-2.683,1.574-4.157,2.074C31.928,21.709,32,20.863,32,20
				C32,19.31,31.96,18.648,31.895,17.997z M35.68,17.51c-1.307-0.725-2.69-1.292-4.131-1.705c-0.374-1.761-0.997-3.479-1.839-5.083
				C32.657,11.895,34.886,14.42,35.68,17.51z M26,10c0.328,0,0.654,0.023,0.978,0.058c1.069,1.601,1.876,3.377,2.379,5.234
				c-2.205-0.374-4.515-0.373-6.714,0c0.5-1.847,1.303-3.618,2.368-5.216C25.337,10.04,25.663,10,26,10z M22.289,10.725
				c-0.842,1.605-1.465,3.323-1.838,5.08c-1.443,0.414-2.825,0.98-4.131,1.705C17.113,14.424,19.339,11.9,22.289,10.725z
				 M16.492,23.091c1.298,0.707,2.67,1.259,4.105,1.658c0.383,1.586,0.953,3.106,1.712,4.544
				C19.537,28.209,17.405,25.936,16.492,23.091z M25.008,29.924c-0.97-1.457-1.716-3.022-2.217-4.683
				C23.86,25.414,24.934,25.51,26,25.51c1.066,0,2.14-0.096,3.21-0.269c-0.5,1.659-1.246,3.226-2.218,4.684
				C26.341,29.995,25.674,29.995,25.008,29.924z M29.692,29.29c0.76-1.439,1.33-2.959,1.712-4.542
				c1.444-0.401,2.821-0.956,4.102-1.655C34.594,25.934,32.465,28.204,29.692,29.29z"/>
		</g>
	</g>
</g>
</svg>
